X: 1
T: String Quartet in D Minor opus 103 no 1 mvt 2
C: Franz Joseph Haydn
%%abc-version 2.0
%%abcx-abcm2ps-target-version 5.9.1 (29 Sep 2008)
%%abc-creator hum2abc beta
%%abcx-conversion-date 2021/02/14 14:38:21
%%abc-copyright Copyright (c) 1994, 2000 Center for Computer Assisted Research in the Humanities
%%abc-edited-by Frances Bennion
%%abcx-initial-encoding-date 1997/04/15
%%gracespace 0 6 6
%%humdrum-veritas 3749860256
%%humdrum-veritas-data 1792808819
%%linebreak <none>
%%barnumbers 0
L: 1/4
M: 3/4
N: Derived from op103-02.krn
Q: "Affettuoso"
%%staves [1 2 3 4]
V: 1
V: 2
V: 3 clef=alto
V: 4 clef=bass
K: F
[V:1][Dd] d/>f/ a [I:setbarnb2] |
[V:2][A,2F2] z |
[V:3][F,2A,2] z |
[V:4]D,,2 z |
[V:1]A2 ^F |
[V:2]z E _E |
[V:3]z E A, |
[V:4]z ^C =C |
[V:1]G G/>B/ d |
[V:2]D2 z |
[V:3]B,2 z |
[V:4]B,2 z |
[V:1]E2 F |
[V:2]z _D C |
[V:3]z3 |
[V:4]z B, A, |
[V:1]^D E ^C |
[V:2]z =B, _B, |
[V:3]z z E, |
[V:4]z ^G, =G, |
[V:1]D D/>E/ F |
[V:2]A,2 ^G, |
[V:3]F, E, =B, |
[V:4]F, E, D, |
[V:1]E A ^G |
[V:2]A, E =B,3//C// |
[V:3]C C/>D/ E |
[V:4]C, C,/>D,/ E, |
[V:1]A z z |
[V:2]A, z2 |
[V:3]A, z2 |
[V:4]A,, E, A, |
[V:1]^c c/>e/ a |
[V:2]z A A |
[V:3]z G G |
[V:4]z3 |
[V:1]d d/>f/ a |
[V:2]z A A |
[V:3]z F F |
[V:4]z3 |
[V:1]z c c- |
[V:2]z A A- |
[V:3]z D/>A,/ ^F, |
[V:4]^F,, F,,/>A,,/ D, |
[V:1]c B B |
[V:2]A D G- |
[V:3]z G,/>B,/ _E- |
[V:4]G,, G,,/>B,,/ _E, |
[V:1]A/c/ _e/c/ A/^F/ |
[V:2]G G ^F/A/ |
[V:3]E C C/D/ |
[V:4]C, A,, D, |
[V:1]G/B/ d/B/ g/d/ |
[V:2]G/B/ d/B/ g/d/ |
[V:3]G,/B,/ D/B,/ G/D/ |
[V:4]G,,/B,,/ D,/B,,/ G,/D,/ |
[V:1]b/z/ ^c2 |
[V:2]b <z B |
[V:3]B z G |
[V:4]B, z2 |
[V:1]a/z/ d2 |
[V:2]z z A |
[V:3]z z F |
[V:4]z3 |
[V:1]^c/>e/ g f |
[V:2]G e d |
[V:3]E ^C D3//F// |
[V:4]z3 |
[V:1]f2 e |
[V:2]d2 ^c |
[V:3]A/^G/ A/A,/ =G/E/ |
[V:4]z3 |
[V:1][dD] d/>f/ a |
[V:2][d2F2] z |
[V:3][A,2F2] z |
[V:4]D,,2 z |
[V:1]A2 ^F |
[V:2]z _E E |
[V:3]z C C |
[V:4]z ^F,, A,, |
[V:1]G G/>B/ d |
[V:2]D2 z |
[V:3]B,2 z |
[V:4]B,,2 z |
[V:1]E2 F |
[V:2]z B, B, |
[V:3]z G, G, |
[V:4]z C, _D, |
[V:1]E2 F |
[V:2]z B, B, |
[V:3]z G, G, |
[V:4]z C, _D, |
[V:1]E G F |
[V:2]z A,/A/ A |
[V:3]z E A, |
[V:4]z ^C,, D,, |
[V:1]E D ^C |
[V:2]G F E |
[V:3]B, A, G, |
[V:4]G,, A,, A,, |
[V:1]D ^c d |
[V:2]D B B |
[V:3]F, G G |
[V:4]B,, z2 |
[V:1]^d e z |
[V:2]B B B |
[V:3]G G G |
[V:4]z ^C D |
[V:1]z ^c d |
[V:2]B B B |
[V:3]G G G |
[V:4]^D E z |
[V:1]^d e z |
[V:2]B B B |
[V:3]G G G |
[V:4]z ^C D |
[V:1]z ^c d |
[V:2]B B A |
[V:3]G G F |
[V:4]^D E z |
[V:1]e g f |
[V:2]G e d |
[V:3]E ^C D |
[V:4]z A, B, |
[V:1]e d ^c |
[V:2]B/>G/ F E |
[V:3]G, A, A, |
[V:4]G, A, A,/G,/ |
[V:1]c c/>^f/ a |
[V:2]_E3 |
[V:3]A,3 |
[V:4]^F,3 |
[V:1]B B/>d/ g |
[V:2]D3 |
[V:3]B,3 |
[V:4]G,3 |
[V:1]f f/>=b/ d' |
[V:2][d3F3] |
[V:3]=B,3 |
[V:4]^G,3 |
[V:1]z3 |
[V:2]z3 |
[V:3]z3 |
[V:4]z3 |
[V:1]z3 |
[V:2]G G G |
[V:3]B, B, B, |
[V:4]z ^C,, D,, |
[V:1]z ^c d |
[V:2]G G G |
[V:3]B, B, B, |
[V:4]^D,, E,, z |
[V:1]^d e z |
[V:2]G B B |
[V:3]B, G G |
[V:4]z ^C D |
[V:1]z ^c' d' |
[V:2]B B B |
[V:3]G G G |
[V:4]^D E z |
[V:1]^d' e' f' |
[V:2]B B A |
[V:3]G G F |
[V:4]z ^C, D, |
[V:1]^f'3 |
[V:2]d _e3/ A/ |
[V:3]A3 |
[V:4]C,2 C |
[V:1]g' ^g'2 |
[V:2]d d/>e/ f |
[V:3]G/>D/ F/>E/ D3//D// |
[V:4]=B, _B, B,, |
[V:1]a' z (3[C//A,//]=B,//^C//(3D//E//F//|
[V:2]f z2 |
[V:3]D z2 |
[V:4]A,, z2 |
[V:1]G/A//=B// ^c//d//e//f// g//a//=b//^c'// |
[V:2][eG] z2 |
[V:3][A^CE] z2 |
[V:4]A,, z2 |
[V:1]d' z z |]
[V:2][dF] z2 |]
[V:3][FA,] z2 |]
[V:4]D,, z2 |]

